X:4
T:Dinky's
C:Francie Dearg Byrne (arr for highland pipes)
S:Henrik Norbeck <henrik.norbeck@mailbox.swipnet.se> abcusers 2002-7-9
M:C|
K:Hp
{g}ed|:cd{G}Bc {AG}ABcd|eg{a}fd {g}edBd|gB{d}B{G}B
gBaB|gB{d}B{G}B {a}gfed|
cd{G}Bc {AG}ABcd|eg{a}fd {g}edBd|{gf}g2{a}ge {gfg}f2ed|1 cd{G}Bc
{AG}A2{g}ed:|2 cd{G}Bc {AG}A2eg||
|:aA{gAGAG}A2 aA{d}BA|aA{gAGAG}A2 agef|gB{d}B{G}B
gBaB|gB{d}B{G}B gefg|
[1 aA{gAGAG}A2 aA{d}BA|aA{gAGAG}A2 agef|g{a}g{f}ge
{gfg}f2ed|cd{G}Bc {AG}A2eg:|
[2 {ag}a2{g}af g{a}g{f}ge|f{g}f{e}fd edef|g{a}g{f}ge
{gfg}f2ed|cd{G}Bc {AG}A2||
